symbols/web/strikethrough_s/materialsymbolsoutlined/strikethrough_s_wght500gradN25_24px.svg

<svg xmlns="http://www.w3.org/2000/svg" height="24" width="24"><path d="M12.2 20.05q-1.95 0-3.4-1.112-1.45-1.113-2.075-3.088l2.2-.95q.35 1.25 1.2 2.013.85.762 2.125.762 1.025 0 1.838-.5.812-.5.812-1.575 0-.5-.2-.888-.2-.387-.575-.737h2.85q.15.375.25.775t.1.85q0 2.15-1.513 3.3-1.512 1.15-3.612 1.15ZM2.15 12v-1.975h19.725V12Zm9.9-8.15q1.6 0 2.85.787 1.25.788 1.925 2.463l-2.225.95q-.25-.725-.862-1.275-.613-.55-1.638-.55t-1.675.487Q9.775 7.2 9.7 8.05H7.3q.05-1.8 1.35-3t3.4-1.2Z"/></svg>

<svg xmlns="http://www.w3.org/2000/svg" height="24" width="24"><path d="M12.2 20.05Q10.25 20.05 8.8 18.938Q7.35 17.825 6.725 15.85L8.925 14.9Q9.275 16.15 10.125 16.913Q10.975 17.675 12.25 17.675Q13.275 17.675 14.088 17.175Q14.9 16.675 14.9 15.6Q14.9 15.1 14.7 14.712Q14.5 14.325 14.125 13.975H16.975Q17.125 14.35 17.225 14.75Q17.325 15.15 17.325 15.6Q17.325 17.75 15.812 18.9Q14.3 20.05 12.2 20.05ZM2.15 12V10.025H21.875V12ZM12.05 3.85Q13.65 3.85 14.9 4.637Q16.15 5.425 16.825 7.1L14.6 8.05Q14.35 7.325 13.738 6.775Q13.125 6.225 12.1 6.225Q11.075 6.225 10.425 6.712Q9.775 7.2 9.7 8.05Q9.7 8.05 9.7 8.05Q9.7 8.05 9.7 8.05H7.3Q7.3 8.05 7.3 8.05Q7.3 8.05 7.3 8.05Q7.35 6.25 8.65 5.05Q9.95 3.85 12.05 3.85Z"/></svg>
